resources/flags/aus_norter.svg

<?xml version="1.0" encoding="UTF-8"?>
<svg xmlns="http://www.w3.org/2000/svg" xmlns:xlink="http://www.w3.org/1999/xlink" width="150px" height="150px" viewBox="0 0 150 75" version="1.1">
<g id="surface1">
<rect x="0" y="0" width="150" height="75" style="fill:rgb(78.039217%,35.686275%,7.058824%);fill-opacity:1;stroke:none;"/>
<path style=" stroke:none;fill-rule:nonzero;fill:rgb(0%,0%,0%);fill-opacity:1;" d="M 0 0 L 50 0 L 50 75 L 0 75 Z M 0 0 "/>
<path style=" stroke:none;fill-rule:nonzero;fill:rgb(100%,100%,100%);fill-opacity:1;" d="M 25 50.625 L 27.261719 56.25 L 25 61.875 L 22.738281 56.25 Z M 25 50.625 "/>
<path style=" stroke:none;fill-rule:nonzero;fill:rgb(100%,100%,100%);fill-opacity:1;" d="M 30.625 56.25 L 25 58.511719 L 19.375 56.25 L 25 53.988281 Z M 30.625 56.25 "/>
<path style=" stroke:none;fill-rule:nonzero;fill:rgb(100%,100%,100%);fill-opacity:1;" d="M 28.976562 52.273438 L 26.601562 57.851562 L 21.023438 60.226562 L 23.398438 54.648438 Z M 28.976562 52.273438 "/>
<path style=" stroke:none;fill-rule:nonzero;fill:rgb(100%,100%,100%);fill-opacity:1;" d="M 28.976562 60.226562 L 23.398438 57.851562 L 21.023438 52.273438 L 26.601562 54.648438 Z M 28.976562 60.226562 "/>
<path style=" stroke:none;fill-rule:nonzero;fill:rgb(100%,100%,100%);fill-opacity:1;" d="M 10.125 29.4375 L 11.425781 31.796875 L 14.082031 31.34375 L 13.050781 33.832031 L 15.0625 35.625 L 12.46875 36.371094 L 12.320312 39.0625 L 10.125 37.5 L 7.929688 39.0625 L 7.78125 36.371094 L 5.1875 35.625 L 7.199219 33.832031 L 6.167969 31.34375 L 8.824219 31.796875 Z M 10.125 29.4375 "/>
<path style=" stroke:none;fill-rule:nonzero;fill:rgb(100%,100%,100%);fill-opacity:1;" d="M 25 13.6875 L 26.300781 16.046875 L 28.957031 15.59375 L 27.925781 18.082031 L 29.9375 19.875 L 27.34375 20.621094 L 27.195312 23.3125 L 25 21.75 L 22.804688 23.3125 L 22.65625 20.621094 L 20.0625 19.875 L 22.074219 18.082031 L 21.042969 15.59375 L 23.699219 16.046875 Z M 25 13.6875 "/>
<path style=" stroke:none;fill-rule:nonzero;fill:rgb(100%,100%,100%);fill-opacity:1;" d="M 38.25 27 L 39.75 28.902344 L 39.75 34.097656 L 38.25 36 L 36.75 34.097656 L 36.75 28.902344 Z M 38.25 27 "/>
<path style=" stroke:none;fill-rule:nonzero;fill:rgb(100%,100%,100%);fill-opacity:1;" d="M 42.148438 29.25 L 41.25 31.5 L 36.75 34.097656 L 34.351562 33.75 L 35.25 31.5 L 39.75 28.902344 Z M 42.148438 29.25 "/>
<path style=" stroke:none;fill-rule:nonzero;fill:rgb(100%,100%,100%);fill-opacity:1;" d="M 42.148438 33.75 L 39.75 34.097656 L 35.25 31.5 L 34.351562 29.25 L 36.75 28.902344 L 41.25 31.5 Z M 42.148438 33.75 "/>
<path style=" stroke:none;fill-rule:nonzero;fill:rgb(100%,100%,100%);fill-opacity:1;" d="M 30.75 36 L 31.742188 37.636719 L 33.601562 38.074219 L 32.355469 39.519531 L 32.511719 41.425781 L 30.75 40.6875 L 28.988281 41.425781 L 29.144531 39.519531 L 27.898438 38.074219 L 29.757812 37.636719 Z M 30.75 36 "/>
<path style=" stroke:none;fill-rule:nonzero;fill:rgb(0%,0%,0%);fill-opacity:1;" d="M 95.988281 29.167969 C 96.84375 30.574219 98.355469 31.449219 100 31.5 C 101.644531 31.449219 103.15625 30.574219 104.011719 29.167969 L 100 39 Z M 95.988281 29.167969 "/>
<path style=" stroke:none;fill-rule:nonzero;fill:rgb(100%,100%,100%);fill-opacity:1;" d="M 100 18.75 C 101.097656 18.808594 102.175781 19.0625 103.1875 19.5 C 104.445312 20.09375 105.246094 21.359375 105.25 22.75 C 105.253906 24.117188 105 25.476562 104.5 26.75 C 103.9375 28.402344 102.714844 29.746094 101.125 30.464844 C 100.777344 30.644531 100.390625 30.738281 100 30.75 C 99.609375 30.738281 99.222656 30.644531 98.875 30.464844 C 97.285156 29.746094 96.0625 28.402344 95.5 26.75 C 95 25.476562 94.746094 24.117188 94.75 22.75 C 94.753906 21.359375 95.554688 20.09375 96.8125 19.5 C 97.824219 19.0625 98.902344 18.808594 100 18.75 Z M 100 18.75 "/>
<path style=" stroke:none;fill-rule:nonzero;fill:rgb(0%,0%,0%);fill-opacity:1;" d="M 104.011719 29.167969 C 103.449219 30.714844 103.703125 32.441406 104.691406 33.757812 C 105.757812 35.015625 107.382812 35.648438 109.015625 35.441406 L 98.828125 38.433594 Z M 104.011719 29.167969 "/>
<path style=" stroke:none;fill-rule:nonzero;fill:rgb(100%,100%,100%);fill-opacity:1;" d="M 114.660156 25.808594 C 115.296875 26.707031 115.773438 27.707031 116.058594 28.769531 C 116.378906 30.121094 115.890625 31.539062 114.804688 32.40625 C 113.738281 33.265625 112.519531 33.910156 111.210938 34.316406 C 109.566406 34.90625 107.753906 34.789062 106.203125 33.992188 C 105.84375 33.832031 105.527344 33.589844 105.277344 33.292969 C 105.039062 32.980469 104.878906 32.617188 104.796875 32.234375 C 104.367188 30.542969 104.65625 28.75 105.597656 27.277344 C 106.285156 26.09375 107.1875 25.050781 108.257812 24.199219 C 109.347656 23.332031 110.835938 23.171875 112.085938 23.785156 C 113.054688 24.300781 113.929688 24.988281 114.660156 25.808594 Z M 114.660156 25.808594 "/>
<path style=" stroke:none;fill-rule:nonzero;fill:rgb(0%,0%,0%);fill-opacity:1;" d="M 109.015625 35.441406 C 107.457031 35.964844 106.265625 37.242188 105.847656 38.835938 C 105.53125 40.449219 106.050781 42.117188 107.230469 43.265625 L 98.539062 37.167969 Z M 109.015625 35.441406 "/>
<path style=" stroke:none;fill-rule:nonzero;fill:rgb(100%,100%,100%);fill-opacity:1;" d="M 118.28125 41.671875 C 117.976562 42.730469 117.488281 43.726562 116.839844 44.613281 C 115.980469 45.707031 114.566406 46.207031 113.210938 45.902344 C 111.875 45.601562 110.609375 45.050781 109.480469 44.277344 C 107.992188 43.363281 106.953125 41.871094 106.609375 40.164062 C 106.511719 39.78125 106.503906 39.386719 106.582031 39.003906 C 106.675781 38.621094 106.859375 38.269531 107.109375 37.96875 C 108.164062 36.578125 109.746094 35.683594 111.480469 35.503906 C 112.835938 35.300781 114.214844 35.355469 115.546875 35.664062 C 116.902344 35.976562 117.957031 37.039062 118.257812 38.398438 C 118.457031 39.480469 118.464844 40.589844 118.28125 41.671875 Z M 118.28125 41.671875 "/>
<path style=" stroke:none;fill-rule:nonzero;fill:rgb(0%,0%,0%);fill-opacity:1;" d="M 107.230469 43.265625 C 105.847656 42.371094 104.105469 42.238281 102.601562 42.90625 C 101.144531 43.664062 100.164062 45.109375 100 46.746094 L 99.347656 36.148438 Z M 107.230469 43.265625 "/>
<path style=" stroke:none;fill-rule:nonzero;fill:rgb(100%,100%,100%);fill-opacity:1;" d="M 108.136719 54.394531 C 107.121094 54.816406 106.039062 55.054688 104.9375 55.101562 C 103.546875 55.109375 102.273438 54.320312 101.667969 53.066406 C 101.074219 51.835938 100.710938 50.503906 100.609375 49.136719 C 100.398438 47.40625 100.917969 45.664062 102.039062 44.328125 C 102.277344 44.015625 102.582031 43.761719 102.929688 43.582031 C 103.285156 43.421875 103.675781 43.339844 104.066406 43.351562 C 105.8125 43.304688 107.496094 43.988281 108.71875 45.234375 C 109.722656 46.164062 110.539062 47.277344 111.128906 48.511719 C 111.730469 49.765625 111.558594 51.253906 110.683594 52.335938 C 109.960938 53.164062 109.097656 53.863281 108.136719 54.394531 Z M 108.136719 54.394531 "/>
<path style=" stroke:none;fill-rule:nonzero;fill:rgb(0%,0%,0%);fill-opacity:1;" d="M 100 46.746094 C 99.835938 45.109375 98.855469 43.664062 97.398438 42.90625 C 95.894531 42.238281 94.152344 42.371094 92.769531 43.265625 L 100.652344 36.148438 Z M 100 46.746094 "/>
<path style=" stroke:none;fill-rule:nonzero;fill:rgb(100%,100%,100%);fill-opacity:1;" d="M 91.863281 54.394531 C 90.902344 53.863281 90.039062 53.164062 89.316406 52.335938 C 88.441406 51.253906 88.269531 49.765625 88.871094 48.511719 C 89.460938 47.277344 90.277344 46.164062 91.28125 45.234375 C 92.503906 43.988281 94.1875 43.304688 95.933594 43.351562 C 96.324219 43.339844 96.714844 43.421875 97.070312 43.582031 C 97.417969 43.761719 97.722656 44.015625 97.960938 44.328125 C 99.082031 45.664062 99.601562 47.40625 99.390625 49.136719 C 99.289062 50.503906 98.925781 51.835938 98.332031 53.066406 C 97.726562 54.320312 96.453125 55.109375 95.0625 55.101562 C 93.960938 55.054688 92.878906 54.816406 91.863281 54.394531 Z M 91.863281 54.394531 "/>
<path style=" stroke:none;fill-rule:nonzero;fill:rgb(0%,0%,0%);fill-opacity:1;" d="M 92.769531 43.265625 C 93.949219 42.117188 94.46875 40.449219 94.152344 38.835938 C 93.734375 37.242188 92.542969 35.964844 90.984375 35.441406 L 101.460938 37.167969 Z M 92.769531 43.265625 "/>
<path style=" stroke:none;fill-rule:nonzero;fill:rgb(100%,100%,100%);fill-opacity:1;" d="M 81.71875 41.671875 C 81.535156 40.589844 81.542969 39.480469 81.742188 38.398438 C 82.042969 37.039062 83.097656 35.976562 84.453125 35.664062 C 85.785156 35.355469 87.164062 35.300781 88.519531 35.503906 C 90.253906 35.683594 91.835938 36.578125 92.890625 37.96875 C 93.140625 38.269531 93.324219 38.621094 93.417969 39.003906 C 93.496094 39.386719 93.488281 39.78125 93.390625 40.164062 C 93.046875 41.871094 92.007812 43.363281 90.519531 44.277344 C 89.390625 45.050781 88.125 45.601562 86.789062 45.902344 C 85.433594 46.207031 84.019531 45.707031 83.160156 44.613281 C 82.511719 43.726562 82.023438 42.730469 81.71875 41.671875 Z M 81.71875 41.671875 "/>
<path style=" stroke:none;fill-rule:nonzero;fill:rgb(0%,0%,0%);fill-opacity:1;" d="M 90.984375 35.441406 C 92.617188 35.648438 94.242188 35.015625 95.308594 33.757812 C 96.296875 32.441406 96.550781 30.714844 95.988281 29.167969 L 101.171875 38.433594 Z M 90.984375 35.441406 "/>
<path style=" stroke:none;fill-rule:nonzero;fill:rgb(100%,100%,100%);fill-opacity:1;" d="M 85.339844 25.808594 C 86.070312 24.988281 86.945312 24.300781 87.914062 23.785156 C 89.164062 23.171875 90.652344 23.332031 91.742188 24.199219 C 92.8125 25.050781 93.714844 26.09375 94.402344 27.277344 C 95.34375 28.75 95.632812 30.542969 95.203125 32.234375 C 95.121094 32.617188 94.960938 32.980469 94.722656 33.292969 C 94.472656 33.589844 94.15625 33.832031 93.796875 33.992188 C 92.246094 34.789062 90.433594 34.90625 88.789062 34.316406 C 87.480469 33.910156 86.261719 33.265625 85.195312 32.40625 C 84.109375 31.539062 83.621094 30.121094 83.941406 28.769531 C 84.226562 27.707031 84.703125 26.707031 85.339844 25.808594 Z M 85.339844 25.808594 "/>
</g>
</svg>

<svg xmlns="http://www.w3.org/2000/svg" width="150" height="150" viewBox="0 0 150 75"><path d="M0 0h150v75H0z" style="fill:#c75b12;fill-opacity:1;stroke:none"/><path d="M0 0h50v75H0Zm0 0" style="stroke:none;fill-rule:nonzero;fill:#000;fill-opacity:1"/><path d="m25 50.625 2.262 5.625L25 61.875l-2.262-5.625Zm0 0" style="stroke:none;fill-rule:nonzero;fill:#fff;fill-opacity:1"/><path d="M30.625 56.25 25 58.512l-5.625-2.262L25 53.988Zm0 0" style="stroke:none;fill-rule:nonzero;fill:#fff;fill-opacity:1"/><path d="m28.977 52.273-2.375 5.579-5.579 2.375 2.375-5.579Zm0 0" style="stroke:none;fill-rule:nonzero;fill:#fff;fill-opacity:1"/><path d="m28.977 60.227-5.579-2.375-2.375-5.579 5.579 2.375ZM10.125 29.438l1.3 2.359 2.657-.453-1.031 2.488 2.011 1.793-2.593.746-.149 2.691-2.195-1.562-2.195 1.563-.149-2.692-2.593-.746 2.011-1.793-1.031-2.488 2.656.453ZM25 13.688l1.3 2.359 2.657-.453-1.031 2.488 2.012 1.793-2.594.746-.149 2.692L25 21.75l-2.195 1.563-.149-2.692-2.593-.746 2.011-1.793-1.031-2.488 2.656.453ZM38.25 27l1.5 1.902v5.196L38.25 36l-1.5-1.902v-5.196Zm0 0" style="stroke:none;fill-rule:nonzero;fill:#fff;fill-opacity:1"/><path d="m42.148 29.25-.898 2.25-4.5 2.598-2.398-.348.898-2.25 4.5-2.598Zm0 0" style="stroke:none;fill-rule:nonzero;fill:#fff;fill-opacity:1"/><path d="m42.148 33.75-2.398.348-4.5-2.598-.898-2.25 2.398-.348 4.5 2.598ZM30.75 36l.992 1.637 1.86.437-1.247 1.446.157 1.906-1.762-.739-1.762.739.157-1.906-1.247-1.446 1.86-.437Zm0 0" style="stroke:none;fill-rule:nonzero;fill:#fff;fill-opacity:1"/><path d="M95.988 29.168A4.87 4.87 0 0 0 100 31.5a4.87 4.87 0 0 0 4.012-2.332L100 39Zm0 0" style="stroke:none;fill-rule:nonzero;fill:#000;fill-opacity:1"/><path d="M100 18.75a9.272 9.272 0 0 1 3.188.75 3.603 3.603 0 0 1 2.062 3.25 10.867 10.867 0 0 1-.75 4 6.31 6.31 0 0 1-3.375 3.715c-.348.18-.734.273-1.125.285a2.622 2.622 0 0 1-1.125-.285A6.31 6.31 0 0 1 95.5 26.75a10.867 10.867 0 0 1-.75-4 3.603 3.603 0 0 1 2.063-3.25 9.272 9.272 0 0 1 3.187-.75Zm0 0" style="stroke:none;fill-rule:nonzero;fill:#fff;fill-opacity:1"/><path d="M104.012 29.168a4.871 4.871 0 0 0 .68 4.59 4.865 4.865 0 0 0 4.324 1.683l-10.188 2.993Zm0 0" style="stroke:none;fill-rule:nonzero;fill:#000;fill-opacity:1"/><path d="M114.66 25.809a9.286 9.286 0 0 1 1.399 2.96 3.595 3.595 0 0 1-1.254 3.637 10.843 10.843 0 0 1-3.594 1.91 6.3 6.3 0 0 1-5.008-.324 2.596 2.596 0 0 1-.926-.699 2.661 2.661 0 0 1-.48-1.059 6.314 6.314 0 0 1 .8-4.957 10.982 10.982 0 0 1 2.66-3.078 3.598 3.598 0 0 1 3.829-.414 9.312 9.312 0 0 1 2.574 2.024Zm0 0" style="stroke:none;fill-rule:nonzero;fill:#fff;fill-opacity:1"/><path d="M109.016 35.441a4.888 4.888 0 0 0-3.168 3.395 4.876 4.876 0 0 0 1.382 4.43l-8.69-6.098Zm0 0" style="stroke:none;fill-rule:nonzero;fill:#000;fill-opacity:1"/><path d="M118.281 41.672a9.378 9.378 0 0 1-1.441 2.941 3.61 3.61 0 0 1-3.63 1.29 10.792 10.792 0 0 1-3.73-1.626 6.285 6.285 0 0 1-2.87-4.113 2.587 2.587 0 0 1-.028-1.16c.094-.383.277-.734.527-1.035a6.305 6.305 0 0 1 4.371-2.465 10.873 10.873 0 0 1 4.067.16 3.604 3.604 0 0 1 2.71 2.734c.2 1.082.208 2.192.024 3.274Zm0 0" style="stroke:none;fill-rule:nonzero;fill:#fff;fill-opacity:1"/><path d="M107.23 43.266a4.879 4.879 0 0 0-4.628-.36 4.88 4.88 0 0 0-2.602 3.84l-.652-10.598Zm0 0" style="stroke:none;fill-rule:nonzero;fill:#000;fill-opacity:1"/><path d="M108.137 54.395a9.373 9.373 0 0 1-3.2.707 3.605 3.605 0 0 1-3.269-2.036 10.904 10.904 0 0 1-1.059-3.93 6.299 6.299 0 0 1 1.43-4.808c.238-.312.543-.566.89-.746.356-.16.747-.242 1.137-.23a6.28 6.28 0 0 1 4.653 1.882c1.004.93 1.82 2.043 2.41 3.278a3.603 3.603 0 0 1-.445 3.824 9.462 9.462 0 0 1-2.547 2.059Zm0 0" style="stroke:none;fill-rule:nonzero;fill:#fff;fill-opacity:1"/><path d="M100 46.746a4.88 4.88 0 0 0-2.602-3.84 4.879 4.879 0 0 0-4.628.36l7.882-7.118Zm0 0" style="stroke:none;fill-rule:nonzero;fill:#000;fill-opacity:1"/><path d="M91.863 54.395a9.462 9.462 0 0 1-2.547-2.06 3.603 3.603 0 0 1-.445-3.823 10.827 10.827 0 0 1 2.41-3.278 6.28 6.28 0 0 1 4.653-1.882c.39-.012.78.07 1.136.23.348.18.653.434.89.746a6.299 6.299 0 0 1 1.43 4.809 10.904 10.904 0 0 1-1.058 3.93 3.605 3.605 0 0 1-3.27 2.035 9.373 9.373 0 0 1-3.199-.707Zm0 0" style="stroke:none;fill-rule:nonzero;fill:#fff;fill-opacity:1"/><path d="M92.77 43.266a4.876 4.876 0 0 0 1.382-4.43 4.888 4.888 0 0 0-3.168-3.395l10.477 1.727Zm0 0" style="stroke:none;fill-rule:nonzero;fill:#000;fill-opacity:1"/><path d="M81.719 41.672a9.403 9.403 0 0 1 .023-3.274 3.604 3.604 0 0 1 2.711-2.734 10.873 10.873 0 0 1 4.067-.16 6.305 6.305 0 0 1 4.37 2.465c.25.3.434.652.528 1.035.078.383.07.777-.027 1.16a6.285 6.285 0 0 1-2.871 4.113 10.792 10.792 0 0 1-3.73 1.625 3.61 3.61 0 0 1-3.63-1.289 9.378 9.378 0 0 1-1.441-2.941Zm0 0" style="stroke:none;fill-rule:nonzero;fill:#fff;fill-opacity:1"/><path d="M90.984 35.441a4.865 4.865 0 0 0 4.325-1.683 4.871 4.871 0 0 0 .68-4.59l5.183 9.266Zm0 0" style="stroke:none;fill-rule:nonzero;fill:#000;fill-opacity:1"/><path d="M85.34 25.809a9.312 9.312 0 0 1 2.574-2.024 3.598 3.598 0 0 1 3.828.414 10.982 10.982 0 0 1 2.66 3.078 6.314 6.314 0 0 1 .801 4.957 2.661 2.661 0 0 1-.48 1.059c-.25.297-.567.539-.926.7a6.3 6.3 0 0 1-5.008.323 10.843 10.843 0 0 1-3.594-1.91 3.595 3.595 0 0 1-1.254-3.636 9.286 9.286 0 0 1 1.399-2.961Zm0 0" style="stroke:none;fill-rule:nonzero;fill:#fff;fill-opacity:1"/></svg>
